src/img/whatsapp-icon.svg

<svg width="20" height="20" viewBox="0 0 20 20" fill="none" xmlns="http://www.w3.org/2000/svg">
<path d="M10.0001 0.800049C4.92731 0.800049 0.800108 4.92725 0.800108 10C0.800108 11.584 1.20931 13.1416 1.98531 14.516L0.814908 18.692C0.776508 18.8292 0.813708 18.9764 0.912908 19.0784C0.989308 19.1572 1.09331 19.2 1.20011 19.2C1.23211 19.2 1.26451 19.196 1.29611 19.1884L5.65451 18.1088C6.98531 18.8232 8.48411 19.2 10.0001 19.2C15.0729 19.2 19.2001 15.0728 19.2001 10C19.2001 4.92725 15.0729 0.800049 10.0001 0.800049ZM14.6281 13.2464C14.4313 13.7912 13.4873 14.2884 13.0337 14.3552C12.6265 14.4148 12.1113 14.4404 11.5457 14.2628C11.2029 14.1549 10.7629 14.0116 10.1993 13.7712C7.83011 12.7608 6.28291 10.4052 6.16451 10.2496C6.04651 10.094 5.20011 8.98525 5.20011 7.83765C5.20011 6.69005 5.81011 6.12565 6.02691 5.89205C6.24371 5.65845 6.49931 5.60005 6.65691 5.60005C6.81451 5.60005 6.97171 5.60205 7.10971 5.60845C7.25491 5.61565 7.44971 5.55365 7.64131 6.00885C7.83811 6.47605 8.31051 7.62365 8.36891 7.74085C8.42811 7.85765 8.46731 7.99405 8.38891 8.14965C8.31051 8.30525 8.27131 8.40245 8.15291 8.53885C8.03451 8.67525 7.90491 8.84285 7.79851 8.94765C7.68011 9.06405 7.55731 9.19005 7.69491 9.42365C7.83251 9.65725 8.30651 10.4208 9.00891 11.0392C9.91091 11.8336 10.6721 12.08 10.9081 12.1968C11.1441 12.3136 11.2821 12.294 11.4197 12.1384C11.5573 11.9824 12.0101 11.4572 12.1673 11.224C12.3245 10.9908 12.4821 11.0292 12.6989 11.1072C12.9157 11.1848 14.0769 11.7488 14.3129 11.8656C14.5489 11.9824 14.7065 12.0408 14.7657 12.138C14.8249 12.2348 14.8249 12.702 14.6281 13.2464Z" fill="#575757"/>
</svg>

<svg width="20" height="20" fill="none" xmlns="http://www.w3.org/2000/svg"><path d="M10 .8C4.927.8.8 4.927.8 10a9.19 9.19 0 001.185 4.516l-1.17 4.176a.4.4 0 00.481.496l4.359-1.08A9.206 9.206 0 0010 19.2c5.073 0 9.2-4.127 9.2-9.2 0-5.073-4.127-9.2-9.2-9.2zm4.628 12.446c-.197.545-1.14 1.042-1.594 1.11-.408.059-.923.084-1.488-.093a13.816 13.816 0 01-1.347-.492c-2.369-1.01-3.916-3.366-4.034-3.521-.118-.156-.965-1.265-.965-2.412 0-1.148.61-1.712.827-1.946a.873.873 0 01.63-.292c.158 0 .315.002.453.008.145.008.34-.054.531.4.197.468.67 1.616.728 1.733.06.117.098.253.02.409-.078.155-.118.252-.236.389-.118.136-.248.304-.354.409-.119.116-.242.242-.104.476.138.233.612.997 1.314 1.615.902.795 1.663 1.041 1.9 1.158.235.117.373.097.51-.059.138-.156.591-.68.748-.914.158-.233.315-.195.532-.117.217.078 1.378.642 1.614.759.236.116.393.175.453.272.059.097.059.564-.138 1.108z" fill="#575757"/></svg>
